X:125
T:Rogue's March
Z:Jack Campin, http://www.campin.me.uk/
F:Jack Campin's Nine-Note Tunebook
% last edit 10-02-2013
M:6/8
L:1/8
Q:3/8=104
K:D
F2F FGA|B2B B3|A2A A2B|A2G F2E|
F2F FGA|B2B B3|ABc dAF|E3  D3:|
d3  c3 |B3  A3|d3  c3 |BcB A2G|
F2F FGA|B2B B3|ABc dAF|E3  D3:| 

